**kern	**silbe	**kern	**silbe	**kern	**silbe
*ICvox	*	*ICvox	*	*ICvox	*
=1	=1	=1	=1	=1	=1
*A:	*	*A:	*	*A:	*
*M4/4	*	*M4/4	*	*M4/4	*
*clefF4	*	*clefC3	*	*clefG2	*
r;	.	r;	.	r;	.
=2	=2	=2	=2	=2	=2
1r	.	1r	.	1r	.
=3	=3	=3	=3	=3	=3
1r	.	1r	.	1r	.
=4	=4	=4	=4	=4	=4
1r	.	1r	.	1r	.
=5	=5	=5	=5	=5	=5
1r	.	1r	.	1r	.
=6	=6	=6	=6	=6	=6
1C#	I'm	1r	.	1r	.
=7	=7	=7	=7	=7	=7
12D	drea-	1r	.	1r	.
12F#	_	.	.	.	.
12D	_	.	.	.	.
4C#	-ming	.	.	.	.
4r	.	.	.	.	.
16C	of	.	.	.	.
16C#	a	.	.	.	.
[8D	white	.	.	.	.
=8	=8	=8	=8	=8	=8
1D]	_	1r	.	1r	.
=9	=9	=9	=9	=9	=9
8D#	Christ-	1r	.	1r	.
[8E	-mas	.	.	.	.
2E]	_	.	.	.	.
4r	.	.	.	.	.
=10	=10	=10	=10	=10	=10
4r	.	1r	.	1r	.
16r	.	.	.	.	.
8F#	Just	.	.	.	.
[16G#	like	.	.	.	.
4G#]	_	.	.	.	.
8A	the	.	.	.	.
[8B	ones	.	.	.	.
=11	=11	=11	=11	=11	=11
2B_	_	1r	.	1r	.
8B]	_	.	.	.	.
8A	I	.	.	.	.
[4G#	used	.	.	.	.
=12	=12	=12	=12	=12	=12
8G#]	_	1r	.	1r	.
8F#	to	.	.	.	.
2.E	know.	.	.	.	.
=13	=13	=13	=13	=13	=13
2r	.	1r	.	1r	.
4r	.	.	.	.	.
8AA	Where	.	.	.	.
16BB	the	.	.	.	.
[16C#	tree	.	.	.	.
=14	=14	=14	=14	=14	=14
2C#]	_	1r	.	1r	.
4C	tops	.	.	.	.
4r	.	.	.	.	.
=15	=15	=15	=15	=15	=15
12C#	glis-	1r	.	1r	.
[6F#	-ten,	.	.	.	.
2F#]	_	.	.	.	.
4r	.	.	.	.	.
=16	=16	=16	=16	=16	=16
8r	.	1r	.	1r	.
[8E	and	.	.	.	.
8E]	_	.	.	.	.
[8AA	chil-	.	.	.	.
8AA]	_	.	.	.	.
4.AA	-dren	.	.	.	.
=17	=17	=17	=17	=17	=17
12AA	lis-	1r	.	1r	.
[6E	-ten,	.	.	.	.
2E]	_	.	.	.	.
8r	.	.	.	.	.
8D	to	.	.	.	.
=18	=18	=18	=18	=18	=18
1C#	hear	1r	.	1r	.
=19	=19	=19	=19	=19	=19
12D	sleigh	1r	.	1r	.
12F#	_	.	.	.	.
12D	_	.	.	.	.
2C#	bells	.	.	.	.
12BB	in	.	.	.	.
6AA	the	.	.	.	.
=20	=20	=20	=20	=20	=20
1BB	snow.	1r	.	1r	.
=21	=21	=21	=21	=21	=21
2r	.	1r	.	1r	.
4r	.	.	.	.	.
8r	.	.	.	.	.
16r	.	.	.	.	.
[16C#	I'm	.	.	.	.
=22	=22	=22	=22	=22	=22
1C#]	_	1r	.	1r	.
=23	=23	=23	=23	=23	=23
12D	drea-	1r	.	1r	.
12E	_	.	.	.	.
12D	_	.	.	.	.
4C#	-ming	.	.	.	.
4r	.	.	.	.	.
12r	.	.	.	.	.
12FF#	of	.	.	.	.
12~BB	a	.	.	.	.
=24	=24	=24	=24	=24	=24
1D	white	1r	.	1r	.
=25	=25	=25	=25	=25	=25
8D#	Christ-	1r	.	1r	.
[8E	-mas	.	.	.	.
2.E]	_	.	.	.	.
=26	=26	=26	=26	=26	=26
4r	.	1r	.	1r	.
8r	.	.	.	.	.
8F#	with	.	.	.	.
8G#	ev-	.	.	.	.
[8A	-'ry	.	.	.	.
4A]	_	.	.	.	.
=27	=27	=27	=27	=27	=27
4B	Christ-	1r	.	1r	.
4A	-mas	.	.	.	.
2G#	card	.	.	.	.
=28	=28	=28	=28	=28	=28
8FF#	I	1r	.	1r	.
[8E	write	.	.	.	.
2.E]	_	.	.	.	.
=29	=29	=29	=29	=29	=29
2r	.	1r	.	1r	.
4AA	May	.	.	.	.
8BB	your	.	.	.	.
[8C#	days	.	.	.	.
=30	=30	=30	=30	=30	=30
2C#]	_	1r	.	1r	.
4r	.	.	.	.	.
8r	.	.	.	.	.
8FF#	be	.	.	.	.
=31	=31	=31	=31	=31	=31
8C#	mer-	1r	.	1r	.
[8F#	-ry	.	.	.	.
2F#]	_	.	.	.	.
4E	and	.	.	.	.
=32	=32	=32	=32	=32	=32
[1A	bright,	1r	.	1r	.
=33	=33	=33	=33	=33	=33
4A]	_	1r	.	1r	.
4r	.	.	.	.	.
4.AA	and	.	.	.	.
8BB	may	.	.	.	.
=34	=34	=34	=34	=34	=34
2.C#	all	1r	.	1r	.
4C#	your	.	.	.	.
=35	=35	=35	=35	=35	=35
4.F#	Christ-	1r	.	1r	.
8GG#	-ma-	.	.	.	.
4.GG#	-ses	.	.	.	.
8GG#	be	.	.	.	.
=36	=36	=36	=36	=36	=36
1AA	white.	1r	.	1r	.
=37	=37	=37	=37	=37	=37
1r	.	1r	.	1r	.
=38	=38	=38	=38	=38	=38
*	*	*clefF4	*	*	*
1r	.	1AA 1E 1c#	I'm	1e 1a 1cc#	_
=39	=39	=39	=39	=39	=39
1r	.	4AA 4F# 4d	drea-	4f# 4a 4dd	_
.	.	4AA 4E 4c#	-ming	4e 4a 4cc#	_
.	.	4AA 4D# 4c	of	4d# 4a 4cc	_
.	.	4AA 4E 4c#	a	4e 4a 4cc#	_
=40	=40	=40	=40	=40	=40
1r	.	1BB 1F# 1A 1d	white	1f# 1a 1dd	_
=41	=41	=41	=41	=41	=41
1r	.	4EE 4F## 4c# 4d#	Christ-	4g 4a# 4dd#	_
.	.	4EE 4G# 4d 4e	-mas,	4g# 4b 4ee	_
.	.	2r	.	2r	.
=42	=42	=42	=42	=42	=42
1r	.	4r	.	1r	.
.	.	4F#	just	.	.
.	.	4G#	like	.	.
.	.	8A	the	.	.
.	.	[8B	ones	.	.
=43	=43	=43	=43	=43	=43
1r	.	4B]	_	1r	.
.	.	4A	I	.	.
.	.	4.G#	used	.	.
.	.	8F#	to	.	.
=44	=44	=44	=44	=44	=44
1r	.	1E	know.	1r	.
=45	=45	=45	=45	=45	=45
1r	.	2r	.	1r	.
.	.	4A	Where	.	.
.	.	4B	the	.	.
=46	=46	=46	=46	=46	=46
1r	.	2AA 2E 2A 2c#	tree-	1r	.
.	.	2AA 2E 2G# 2B 2c#	-tops	.	.
=47	=47	=47	=47	=47	=47
1r	.	4AA 4E 4G 4c#	glis-	2r	.
.	.	2AA 2E 2G	-ten,	.	.
.	.	.	.	4r	.
.	.	4E	and	4e	_
=48	=48	=48	=48	=48	=48
1r	.	2AA 2D 2F# 2A	chil-	2d 2f# 2a	_
.	.	2AA 2D 2F# 2A	-dren	2d 2f# 2a	_
=49	=49	=49	=49	=49	=49
1r	.	4AA 4F 4A 4B	lis-	4d 4f 4a	_
.	.	4AA 4F 4A 4B	-ten,	4f 4b 4ee	_
.	.	4r	.	2r	.
.	.	4AA 4F 4d	to	.	.
=50	=50	=50	=50	=50	=50
1r	.	1AA 1E 1c#	hear...	4r	.
.	.	.	.	4e	To
.	.	.	.	4a	hear
.	.	.	.	4cc#	those
=51	=51	=51	=51	=51	=51
1r	.	1r	.	4f# 4b 4dd	sleigh
.	.	.	.	4e 4a 4cc#	bells
.	.	.	.	4d# 4g# 4b	in
.	.	.	.	4d# 4f# 4a	the
=52	=52	=52	=52	=52	=52
1r	.	1r	.	[1d [1g# [1b	snow
=53	=53	=53	=53	=53	=53
1r	.	1r	.	2.d] 2.g#] 2.b]	_
.	.	.	.	4r	.
=54	=54	=54	=54	=54	=54
1r	.	1r	.	1c#	I'm
=55	=55	=55	=55	=55	=55
1r	.	1r	.	4d	drea-
.	.	.	.	4c#	-ming
.	.	.	.	4c	of
.	.	.	.	4c#	a
=56	=56	=56	=56	=56	=56
1r	.	1r	.	1d	white
=57	=57	=57	=57	=57	=57
1r	.	1r	.	4d#	Christ-
.	.	.	.	4e	-mas,
.	.	.	.	2r	.
=58	=58	=58	=58	=58	=58
1r	.	1r	.	4r	.
.	.	.	.	4d 4f#	with
.	.	.	.	4e 4g#	ev-
.	.	.	.	4f# 4a	-'ry
=59	=59	=59	=59	=59	=59
1r	.	1r	.	4g# 4b	Christ-
.	.	.	.	4f# 4a	-mas
.	.	.	.	4e 4g#	card
.	.	.	.	4d 4f#	I
=60	=60	=60	=60	=60	=60
1r	.	1r	.	1c# 1e	write.
=61	=61	=61	=61	=61	=61
2r	.	1r	.	2r	.
4C#	May	.	.	4A	May
8D	your	.	.	4B	your
[8E	days	.	.	.	.
=62	=62	=62	=62	=62	=62
2E]	_	1r	.	2c#	days
4r	.	.	.	4r	.
8A	be	.	.	4c#	be
8G#	_	.	.	.	.
=63	=63	=63	=63	=63	=63
4G	mer-	1r	.	4c#	mer-
4A	-ry,	.	.	4f#	-ry
4r	.	.	.	4r	.
12r	.	.	.	4e	and
[12G	and	.	.	.	.
12G]	_	.	.	.	.
=64	=64	=64	=64	=64	=64
[2F#	bright,	1r	.	[1a	bright
8F#]	_	.	.	.	.
8A	_	.	.	.	.
8F#	_	.	.	.	.
[8F	_	.	.	.	.
=65	=65	=65	=65	=65	=65
4F]	_	1r	.	4a]	...
4r	.	.	.	4r	.
4.AA	and	.	.	2r	.
8BB	may	.	.	.	.
=66	=66	=66	=66	=66	=66
2C#	all	1r	.	1r	.
4r	.	.	.	.	.
8r	.	.	.	.	.
8C#	your	.	.	.	.
=67	=67	=67	=67	=67	=67
4.F#	Christ-	1r	.	1r	.
8GG#	-ma-	.	.	.	.
4.GG#	-ses	.	.	.	.
8GG#	be	.	.	.	.
=68	=68	=68	=68	=68	=68
[1AA	white.	1r	.	1r	.
=69	=69	=69	=69	=69	=69
1AA]	_	1r	.	1r	.
r;	.	r;	.	r;	.
r;	.	r;	.	r;	.
*-	*-	*-	*-	*-	*-
!!!ENC: Nathaniel Condit-Schultz
!!!MBID: 26b68d84-b07f-4733-949d-86f8919f40be
